X: 35775
T: Sally Gardens, The
R: reel
M: 4/4
K: Dmajor
|:D3F AFDF|AFBF AFEF|A2 (3FGA BcdB|AFEF DBAB|
D3F AFDF|AFBF AFEF|A2 (3FGA BcdB|AFEF D4:|
|:Addc d2 (3ABc|d2 fd edBd|Beed e2Bd|e2 fd ed (3Bcd|
Addc d2 (3ABc|d2 fd edBd|A2 (3FGA BcdB|AFEF D2:|

